X:1
T:Joachim uti Babylon
T:Joachim uti Babylon
T:Carl Michael Bellman, arr: Halfdan Kjerulf
C:Arr. Halfdan Kjerulf
Z:Carl Michael Bellman
%%score [ 1 2 3 4 ]
L:1/8
Q:1/4=50
M:2/4
K:G
V:1 treble-8 nm="T1"
V:2 treble-8 nm="T2"
V:3 bass nm="B1"
V:4 bass nm="B2"
V:1
"^Andante con moto" G G (G/A/) B/ c/ | d d d2 | e e/ f/ g f/ e/ | e2 d2 | c c c c | B B B B | %6
w: Jo- a- chim _ ut- i|Ba- by- lon|ha- de en hu- stru, Su-|san- na.|Töm vår kan- na,|töm vår kan- na,|
w: ||||||
 A A A A | G4 || d d/ d/ d/ d/ d/ d/ | d d/ d/ d2 | d d/ d/ d d/ d/ | d d/ d/ d2 | c c c c | %13
w: skål för dess per-|son.|Jo- a- chim var en ge- nom-|är- li- ger man,|Frun li- ka är- li- ger|ock- så som han,|Fru Su- san- na,|
w: |||||||
 B B B B | A A A A | G4 |: G G/ G/ (G/A/) (B/c/) | d (d/ d/) d2 | e e/ f/ g f/ e/ | e2 d2 | %20
w: fru Su- san- na|mån- ga hjär- tan|vann.|2.Jo- a- chims träd- * gård _|var med ma- ner;|lust- hus ta- pe- ter af|si- den.|
w: |||3.Ner- ut- i blom- * ster- *|går- den _ nu|gin- go al- le- na två|bof- var.|
 c c c c | B B B B | A A A A | G4 || d d/ d/ d/ d/ d/ d/ | d d/ d/ d2 | d d/ d/ d d/ d/ | %27
w: Mid- dags- ti- den,|mid- dags- ti- den|gick Su- san- na|ner.|E- kar och lin- der sto- do|rundt om en damm.|Skö- na Su- san- na hon|
w: Slo- go lof- var,|slo- go lof- var|kring vår lil- la|fru.|Hej!, sa- de bof- ven till den|an- dra så slem,|Hej, det är mid- dag, kom|
 d d/ d/ d2 | c c c c | B B B B | A A A A | G4 :| %32
w: pla- ska och sam.|När hon pla- ska,|när hon pla- ska|skym- ta lil- jor|fram.|
w: låt oss gå hem.|Två ka- nal- jer,|två ka- nal- jer|i hvar en- da|lem.|
V:2
 G G ((G/F/)) G/ A/ | B B d2 | c c/ d/ e d/ c/ | c2 B2 | B B A A | A A G G | z A/ B/ c d | B4 || %8
w: Jo- a- chim _ ut- i|Ba- by- lon|ha- de en hu- stru, Su-|san- na.|Töm vår kan- na,|töm vår kan- na,|skål för dess per-|son.|
w: ||||||||
 F F/ F/ F/ F/ F/ F/ | F F/ F/ F2 | G G/ G/ (G/A/) B/ c/ | d d/ d/ d2 | c B A A | B A G G | %14
w: Jo- a- chim var en ge- nom-|är- li- ger man,|Frun li- ka är- * li- ger|ock- så som han,|Fru Su- san- na,|fru Su- san- na|
w: ||||||
 G G F F | G4 |: G G/ G/ (G/F/) (G/A/) | B (B/ B/) d2 | c c/ d/ e d/ c/ | c2 B2 | B B A A | %21
w: mån- ga hjär- tan|vann.|2.Jo- a- chims träd- * gård _|var med ma- ner;|lust- hus ta- pe- ter af|si- den.|Mid- dags- ti- den,|
w: ||3.Ner ut- i blom- * ster- *|går- den _ nu|gin- go al- le- na två|bof- var.|Slo- go lof- var,|
 A A G G | A (A/B/) c d | B4 || F F/ F/ F/ F/ F/ F/ | F F/ F/ F2 | G G/ G/ G/ A/ B/ c/ | %27
w: mid- dags- ti- den|gick Su- * san- na|ner.|E- kar och lin- der sto- do|rundt om en damm.|Skö- na Su- san- * na hon|
w: slo- go lof- var|kring vår _ lil- la|fru.|Hej!, sa- de bof- ven till den|an- dra så slem,|Hej, det är mid- * dag, kom|
 d d/ d/ d2 | c B A A | B A G G | G G F F | G4 :| %32
w: pla- ska och sam.|När hon pla- ska,|när hon pla- ska|skym- ta lil- jor|fram.|
w: låt oss gå hem.|Två ka- nal- jer,|två ka- nal- jer|i hvar en- da|lem.|
V:3
 B,, B,, (B,,/D,/) G,/ G,/ | G, G, G,2 | G, G,/ G,/ G, G,/ G,/ | G,2 G,2 | E, E, A, A, | %5
w: Jo- a- chim _ ut- i|Ba- by- lon|ha- de en hu- stru, Su-|san- na.|Töm vår kan- na,|
w: |||||
 D, D, G, G, | G, G, F, F, | D,4 || D, D,/ D,/ D,/ E,/ F,/ G,/ | A, A,/ A,/ A,2 | %10
w: töm vår kan- na,|skål för dess per-|son.|Jo- a- chim var en ge- nom-|är- li- ger man,|
w: |||||
 B, B,/ B,/ B, B,/ B,/ | B, B,/ B,/ B,2 | E,/ F,/ G,/ E,/ z2 | D,/ E,/ F,/ D,/ z2 | %14
w: Frun li- ka är- li- ger|ock- så som han,|Fru Su- san- na,|fru Su- san- na,|
w: ||||
 z2 F,/ G,/ A,/ F,/ | G,/ B,/ G,/ B,/ G,2 |: B,, B,,/ B,,/ (B,,/D,/) G, | G, (G,/ G,/) G,2 | %18
w: mån- ga, mån- ga,|mån- ga hjär- tan vann.|2.Jo- a- chims träd- * gård|var med ma- ner;|
w: ||3.Ner ut- i blom- * ster-|går- den _ nu|
 G, G,/ G,/ G, G,/ G,/ | G,2 G,2 | E, E, A, A, | D, D, G, G, | G, G, F, F, | D,4 || %24
w: lust- hus ta- pe- ter af|si- den.|Mid- dags- ti- den,|mid- dags- ti- den|gick Su- san- na|ner.|
w: gin- go al- le- na två|bof- var.|Slo- go lof- var,|slo- go lof- var|kring vår lil- la|fru.|
 D, D,/ D,/ D,/ E,/ F,/ G,/ | A, A,/ A,/ A,2 | B, B,/ B,/ B, B,/ B,/ | B, B,/ B,/ B,2 | %28
w: E- kar och lin- der sto- do|rundt om en damm.|Skö- na Su- san- na hon|pla- ska och sam.|
w: Hej!, sa- de bof- ven till den|an- dra så slem,|Hej, det är mid- dag, kom|låt oss gå hem.|
 E,/ F,/ G,/ E,/ z2 | D,/ E,/ F,/ D,/ z2 | z2 F,/ G,/ A,/ F,/ | G,/ B,/ G,/ B,/ G,2 :| %32
w: När hon pla- ska,|när hon pla- ska|skym- ta lil- jor,|skym- ta lil- jor fram.|
w: Två ka- nal- jer,|två ka- nal- jer|i hvar- en- da,|i hvar- en- da lem.|
V:4
 z4 | G, G, (G,/F,/) E,/ D,/ | C, C,/ C,/ (C,/D,/) E,/ F,/ | G, G,/ G,/ B, G, | %4
w: |Jo- a- chim _ ut- i|Ba- by- lon ha- * de en|hu- stru, Su- san- na.|
w: ||||
 z2 F,/ G,/ A,/ F,/ | z2 E,/ F,/ G,/ E,/ | C, _E, D, D, | G,,4 || z4 | %9
w: Töm vår kan- na,|töm vår kan- na,|skål för dess per-|son.||
w: |||||
 D, D,/ D,/ D,/ C,/ B,,/ A,,/ | G,, G,,/ G,,/ G,, G, | G,/ G,/ G,/ G,/ G,/ A,/ G,/ F,/ | %12
w: Jo- a- chim var en ge- nom-|är- li- ger man, Frun|li- ka är- li- ger ock- så som|
w: |||
 E, z F,/ G,/ F,/ E,/ | z2 E,/ F,/ E,/ D,/ | ^C,/ D,/ E,/ C,/ D,/ E,/ F,/ D,/ | %15
w: han, Fru Su- san- na,|fru Su- san- na|mån- ga, mån- ga, mån- ga, mån- ga,|
w: |||
 G,/ D,/ B,,/ D,/ G,,2 |: z4 | G, (G,/ G,/) (G,/F,/) (E,/D,/) | C, C,/ C,/ (C,/D,/) E,/ F,/ | %19
w: mån- ga hjär- tan vann.||2.Jo- a- chims träd- * gård, _|lust- hus ta- pe- * ter, ta-|
w: ||3.Ner ut- i blom- * ster- *|går- den nu gin- * go al-|
 G, G,/ G,/ B, G, | z2 F,/ G,/ A,/ F,/ | z2 E,/ F,/ G,/ E,/ | C, _E, D, D, | G,,4 || z4 | %25
w: pe- ter af si- den.|Mid- dags- ti- den,|mid- dags- ti- den|gick Su- san- na|ner.||
w: le- na två bof- var.|Slo- go lof- var,|slo- go lof- var|kring vår lil- la|fru.||
 D, D,/ D,/ D,/ C,/ B,,/ A,,/ | G,, G,,/ G,,/ G,, G, | G,/ G,/ G,/ G,/ G,/ A,/ G,/ F,/ | %28
w: E- kar och lin- der sto- do|rundt om en damm. Skö-|na Su- san- na hon pla- ska och|
w: Hej!, sa- de bof- ven till den|an- dra så slem, Hej,|det är mid- dag, kom, låt oss gå|
 E, z F,/ G,/ F,/ E,/ | z2 E,/ F,/ E,/ D,/ | C,/ D,/ E,/ C,/ D,/ E,/ F,/ D,/ | %31
w: sam. När hon pla- ska,|när hon pla- ska|skym- ta lil- jor, skym- ta lil- jor|
w: hem. Två ka- nal- jer,|två ka- nal- jer|i hvar- en- da, i hvar- en- da,|
 G,/ D,/ B,,/ D,/ G,,2 :| %32
w: skym- ta lil- jor fram.|
w: i hvar- en- da lem.|

